<?xml version="1.0" encoding="UTF-8"?>
<map version="1.10" tiledversion="1.12.2" orientation="orthogonal" renderorder="right-down" width="30" height="30" tilewidth="64" tileheight="64" infinite="0" nextlayerid="9" nextobjectid="119">
 <editorsettings>
  <export target="../../assets/graphics/maps/testMap.csv" format="csv"/>
 </editorsettings>
 <tileset firstgid="1" name="floor" tilewidth="64" tileheight="64" tilecount="64" columns="8">
  <image source="../../graphics/tilesets/floor.png" width="512" height="512"/>
 </tileset>
 <tileset firstgid="65" source="objects.tsx"/>
 <tileset firstgid="76" name="details" tilewidth="64" tileheight="64" tilecount="64" columns="8">
  <image source="../../graphics/tilesets/details.png" width="512" height="512"/>
 </tileset>
 <tileset firstgid="140" source="floor.tsx"/>
 <layer id="1" name="ground" width="30" height="30">
  <data encoding="csv">
44,44,44,44,44,44,44,44,44,44,44,44,44,44,44,44,44,44,44,44,44,44,44,44,44,44,44,44,44,44,
44,44,44,44,45,51,51,51,51,51,51,51,51,51,51,51,51,51,51,52,44,44,44,44,44,44,44,44,44,44,
44,44,45,51,61,58,58,58,58,58,58,58,58,58,58,58,58,58,58,50,51,51,51,51,51,51,52,44,44,44,
51,51,61,58,58,58,58,58,58,58,58,58,58,58,58,58,58,58,58,58,58,58,58,58,58,58,50,51,51,51,
58,58,58,58,58,58,58,58,58,58,58,58,197,197,197,197,197,197,197,58,58,58,58,58,58,58,58,58,58,58,
58,58,58,58,58,58,58,58,58,58,58,58,197,197,197,197,197,197,197,197,58,58,58,58,59,37,37,37,34,58,
58,58,58,58,58,58,58,58,58,58,58,58,58,197,197,197,197,197,197,58,58,58,58,58,35,44,44,44,53,58,
58,58,58,58,58,58,58,58,58,58,58,58,58,58,58,58,58,58,58,58,58,58,58,58,35,44,44,44,53,58,
58,58,58,58,58,58,58,58,58,58,58,58,58,58,58,58,58,58,58,58,58,58,58,58,35,44,44,44,53,58,
58,58,58,58,58,58,58,58,58,58,58,58,58,58,58,58,58,58,58,58,58,58,58,58,35,44,44,44,53,58,
58,58,58,58,58,58,58,58,58,58,58,58,58,58,58,58,58,58,58,58,58,58,59,37,43,44,44,44,53,58,
58,58,58,58,58,58,58,58,58,58,58,58,58,58,58,58,58,58,58,58,58,58,50,51,52,44,44,44,53,58,
58,58,58,58,58,58,58,58,58,58,58,58,58,58,58,58,58,58,58,58,58,58,58,58,35,45,51,51,61,58,
58,58,58,58,58,58,58,58,58,58,58,58,58,58,58,58,58,58,58,58,58,59,37,37,60,61,58,58,58,58,
58,58,58,58,58,58,58,58,58,58,58,58,58,58,58,58,58,58,58,58,58,35,44,44,53,58,58,58,58,58,
58,58,58,58,58,58,58,58,58,58,58,58,58,58,58,58,58,58,58,58,58,35,44,44,53,58,58,58,58,58,
58,58,58,58,58,58,58,58,58,58,58,58,58,58,58,58,58,58,58,58,58,50,51,51,61,58,58,58,58,58,
58,58,58,58,58,58,58,58,58,58,58,58,58,58,58,58,58,58,58,58,58,58,58,58,58,58,58,58,58,58,
58,58,58,58,58,58,58,58,58,58,58,58,58,58,58,58,58,58,58,58,58,58,58,58,58,58,58,58,58,58,
58,58,58,58,58,58,58,58,58,58,58,58,58,58,58,58,58,58,58,58,58,58,58,58,58,58,58,58,58,58,
58,58,58,58,58,58,58,58,58,58,58,58,58,58,58,58,58,58,58,58,58,58,58,58,58,58,58,58,58,58,
58,58,58,58,58,58,58,58,58,58,58,58,58,58,58,58,58,58,58,58,58,58,58,58,58,58,58,58,58,58,
58,58,58,58,58,58,58,58,58,58,58,58,58,58,58,58,58,58,58,58,58,58,58,58,58,58,58,58,58,58,
58,58,58,58,58,58,58,59,37,34,58,58,58,58,58,58,58,58,58,58,58,58,58,58,58,58,58,58,58,58,
58,58,58,58,58,58,58,35,44,53,58,58,58,58,58,58,58,58,58,58,58,58,58,58,58,58,58,58,58,58,
58,58,58,58,58,58,58,50,51,61,58,58,58,58,58,58,58,58,58,58,58,58,58,58,58,58,58,58,58,58,
58,58,58,58,58,58,58,58,58,58,58,58,58,58,58,58,58,58,58,58,58,58,58,58,58,58,58,58,58,58,
58,58,58,58,58,58,58,58,58,58,58,58,58,58,58,58,58,58,58,58,58,58,58,58,58,58,58,58,58,58,
58,58,58,58,58,58,58,58,58,58,58,58,58,58,58,58,58,58,58,58,58,58,58,58,58,58,58,58,58,58,
58,58,58,58,58,58,58,58,58,58,58,58,58,58,58,58,58,58,58,58,58,58,58,58,58,58,58,58,58,58
</data>
 </layer>
 <layer id="2" name="details1" width="30" height="30">
  <data encoding="csv">
0,0,0,0,0,0,0,0,0,0,0,0,0,0,0,0,0,0,0,0,0,0,0,0,0,0,0,0,0,0,
0,0,0,0,0,0,0,0,0,0,0,0,0,0,0,0,0,0,0,0,0,0,0,0,0,0,0,0,0,0,
0,0,0,0,0,0,0,0,0,0,0,0,0,0,0,0,0,0,0,0,0,0,0,0,0,0,0,0,0,0,
0,0,0,0,0,0,0,0,0,0,0,0,0,0,0,0,0,0,0,0,0,0,0,0,0,0,0,0,0,0,
0,0,0,0,0,0,0,0,0,0,0,0,0,0,0,0,0,0,0,0,98,0,0,0,0,0,0,0,0,0,
0,0,0,0,0,0,0,0,0,0,0,0,0,0,0,0,0,0,0,0,99,0,0,0,0,0,0,0,0,0,
0,0,0,0,0,0,0,0,98,0,0,99,98,97,0,0,0,0,0,0,0,0,0,0,0,0,0,0,0,0,
0,0,0,0,0,0,0,0,0,0,0,0,0,0,0,0,0,0,0,0,0,0,0,0,0,0,0,0,0,0,
0,0,0,0,0,0,0,0,0,0,0,0,0,0,0,0,0,0,2147483745,0,0,0,0,0,0,0,0,0,0,0,
0,0,0,0,0,0,0,0,0,99,0,0,0,0,0,0,0,0,0,0,0,0,0,0,0,0,0,0,0,0,
0,0,0,0,2147483751,0,0,0,0,0,0,0,0,0,103,0,0,0,103,0,0,0,0,0,0,0,0,0,0,0,
0,0,0,0,0,0,0,0,2147483751,0,0,2147483747,0,0,0,0,0,0,0,0,0,0,0,0,0,0,0,0,0,0,
0,0,0,0,0,0,0,0,0,0,0,0,0,0,0,0,0,0,0,0,0,0,0,0,0,0,98,0,0,0,
0,0,0,0,0,0,0,0,0,0,0,0,98,0,0,0,0,0,0,0,0,2147483747,0,0,0,0,0,0,0,0,
0,0,106,0,0,0,0,0,0,0,0,0,0,0,0,0,0,0,0,0,0,0,0,0,0,0,0,0,0,0,
0,0,0,0,0,0,0,0,0,0,0,0,106,0,0,0,0,0,0,0,0,0,0,0,0,0,0,0,0,0,
0,0,0,0,0,0,0,0,0,97,0,0,0,0,0,0,0,0,0,2147483747,0,0,0,0,0,0,0,0,0,0,
0,0,0,0,2147483751,0,0,0,0,0,0,0,0,0,0,0,97,0,0,0,0,0,0,0,0,0,0,0,0,0,
0,0,0,0,0,0,0,0,0,0,0,0,0,0,0,0,0,0,0,0,0,0,0,2147483751,0,2147483751,0,0,0,0,
0,0,0,0,0,0,0,0,0,0,0,0,0,0,0,0,0,0,0,0,0,0,0,0,0,0,0,0,0,0,
0,0,2147483654,2147483745,105,0,0,0,0,0,0,0,0,0,0,0,0,0,0,103,2147483751,0,0,0,0,0,0,107,0,0,
0,0,98,99,98,0,0,0,0,0,0,0,0,0,0,0,0,0,0,0,0,0,0,0,0,0,0,0,0,0,
0,0,2147483670,2147483669,0,0,0,0,0,0,0,0,0,0,0,0,0,0,0,0,0,0,0,0,0,0,0,0,0,0,
0,0,0,0,0,0,0,0,0,0,0,0,0,0,0,0,0,0,0,0,0,0,0,0,0,0,0,0,0,0,
0,0,0,0,0,0,0,0,0,0,0,0,0,0,0,0,0,0,0,0,0,0,0,0,0,0,0,0,0,0,
0,0,0,0,0,0,0,0,0,0,0,0,0,0,0,0,0,0,0,0,0,0,0,0,0,0,0,0,0,0,
0,0,0,0,0,0,0,0,0,0,0,0,0,0,0,0,0,0,0,0,0,0,0,0,0,0,2147483753,0,0,0,
0,0,2147483745,0,0,0,0,0,0,0,0,0,2147483751,0,0,0,0,0,0,0,0,0,0,0,0,0,0,0,0,0,
0,0,0,0,0,0,0,0,0,0,0,0,0,0,0,0,0,0,0,0,0,0,0,0,0,0,0,0,0,0,
0,0,0,0,0,0,0,0,0,0,0,0,0,0,0,0,0,0,0,0,0,0,0,0,0,0,0,0,0,0
</data>
 </layer>
 <layer id="8" name="details2" width="30" height="30">
  <data encoding="csv">
0,0,0,0,0,0,0,0,0,0,0,0,0,0,0,0,0,0,0,0,0,0,0,0,0,0,0,0,0,0,
0,0,0,0,0,0,0,0,0,0,0,0,0,0,0,0,0,0,0,0,0,0,0,0,0,0,0,0,0,0,
0,0,0,0,0,0,0,0,0,0,0,0,0,0,0,0,0,0,0,0,0,0,0,0,0,0,0,0,0,0,
0,0,0,0,0,0,0,0,0,0,0,0,0,0,0,0,0,0,0,0,0,0,0,0,0,0,0,0,0,0,
0,0,0,0,0,0,0,0,0,0,0,0,0,0,0,0,0,0,0,0,0,0,0,94,0,0,0,0,0,0,
0,0,0,0,0,0,0,0,0,0,0,0,0,0,0,0,0,0,0,0,0,0,0,0,0,0,0,0,0,0,
0,0,0,0,0,0,0,0,0,0,0,0,0,0,0,0,0,0,0,0,0,0,0,0,0,0,0,0,0,0,
0,0,0,0,0,0,0,0,0,0,0,0,0,0,0,0,0,0,0,0,0,0,0,0,0,0,0,0,0,0,
0,0,0,0,0,0,0,0,0,0,0,0,0,0,0,0,94,0,0,0,0,0,0,0,0,0,0,0,0,0,
0,0,0,0,0,0,0,0,0,0,0,0,0,0,0,0,0,0,0,0,0,0,0,0,0,0,0,0,0,0,
0,0,0,0,0,0,0,0,0,0,0,0,0,0,0,0,0,0,0,0,0,0,0,0,0,0,0,0,0,0,
0,0,0,0,0,0,0,0,0,0,0,0,0,0,0,0,0,0,0,0,0,0,0,0,0,0,0,0,0,0,
0,0,0,0,0,0,0,0,0,0,0,0,0,0,0,0,0,0,0,0,0,0,0,0,0,0,0,0,0,0,
0,0,0,0,0,0,0,0,0,0,0,0,0,0,0,0,0,0,0,0,0,0,0,0,0,0,0,0,0,0,
0,0,0,0,0,0,0,0,0,0,0,0,0,0,0,0,0,0,0,0,0,0,0,0,0,0,0,0,0,0,
0,0,0,0,0,0,0,0,0,0,0,0,0,0,0,0,0,0,0,0,0,0,0,0,0,0,0,0,0,0,
0,0,0,0,0,0,0,0,0,0,0,0,0,0,0,0,0,0,0,0,0,0,0,0,0,0,0,0,0,0,
0,0,0,0,0,0,0,0,0,0,0,0,0,0,0,0,0,0,0,0,0,0,0,0,0,0,0,0,0,0,
0,0,0,0,0,0,0,0,0,0,0,0,0,0,0,0,0,0,0,0,0,0,0,0,0,0,0,0,0,0,
0,0,0,0,0,105,0,0,0,0,0,0,0,0,0,0,0,0,0,0,0,0,0,0,0,0,0,0,0,0,
0,0,0,105,0,0,0,0,0,0,0,0,0,0,0,0,0,0,0,0,0,0,0,0,0,0,0,0,0,0,
0,0,0,106,105,0,0,0,0,0,0,0,0,0,0,0,0,0,0,0,0,0,0,0,0,0,0,0,0,0,
0,0,0,0,0,0,0,0,0,0,0,0,0,0,0,0,0,0,0,0,0,0,0,0,0,0,0,0,0,0,
0,0,0,0,0,0,0,0,0,0,0,0,0,0,0,0,0,0,0,0,0,0,0,0,0,0,0,0,0,0,
0,0,0,0,0,0,0,0,0,0,0,0,0,0,0,0,0,0,0,0,0,0,0,0,0,0,0,0,0,0,
0,0,0,0,0,0,0,0,0,0,0,0,0,0,0,0,0,0,0,0,0,0,0,0,0,0,0,0,0,0,
0,0,0,0,0,0,0,0,0,0,0,0,0,0,0,0,0,0,0,0,0,0,0,0,0,0,0,0,0,0,
0,0,0,0,0,0,0,0,0,0,0,0,0,0,0,0,0,0,0,0,0,0,0,0,0,0,0,0,0,0,
0,0,0,0,0,0,0,0,0,0,0,0,0,0,0,0,0,0,0,0,0,0,0,0,0,0,0,0,0,0,
0,0,0,0,0,0,0,0,0,0,0,0,0,0,0,0,0,0,0,0,0,0,0,0,0,0,0,0,0,0
</data>
 </layer>
 <layer id="6" name="collision_tiles" width="30" height="30">
  <data encoding="csv">
0,0,0,18,18,18,18,18,18,18,18,18,18,18,18,18,18,18,18,18,18,0,0,0,0,0,0,0,0,0,
0,18,18,18,0,0,0,0,0,0,0,0,0,0,0,0,0,0,0,0,18,18,18,18,18,18,18,18,0,0,
18,18,0,0,0,0,0,0,0,0,0,0,0,0,0,0,0,0,0,0,0,0,0,0,0,0,0,18,18,18,
0,0,0,0,0,0,0,0,0,0,0,0,0,0,0,0,0,0,0,0,0,0,0,0,0,0,0,0,0,0,
0,0,0,0,0,0,0,0,0,0,0,0,0,0,0,0,0,0,0,0,0,0,0,0,0,0,0,0,0,0,
0,0,0,0,0,0,0,0,0,0,0,0,0,0,0,0,0,0,0,0,0,0,0,0,0,0,0,0,0,0,
0,0,0,0,0,0,0,0,0,0,0,0,0,0,0,0,0,0,0,0,0,0,0,0,0,18,18,18,0,0,
0,0,0,0,0,0,0,0,0,0,0,0,0,0,0,0,0,0,0,0,0,0,0,0,0,18,18,18,0,0,
0,0,0,0,0,0,0,0,0,0,0,0,0,0,0,0,0,0,0,0,0,0,0,0,0,18,18,18,0,0,
0,0,0,0,0,0,0,0,0,0,0,0,0,0,0,0,0,0,0,0,0,0,0,0,0,18,18,18,0,0,
0,0,0,0,0,0,0,0,0,0,0,0,0,0,0,0,0,0,0,0,0,0,0,0,0,18,18,18,0,0,
0,0,0,0,0,0,0,0,0,0,0,0,0,0,0,0,0,0,0,0,0,0,0,0,0,18,18,18,0,0,
0,0,0,0,0,0,0,0,0,0,0,0,0,0,0,0,0,0,0,0,0,0,0,0,0,0,0,0,0,0,
0,0,0,0,0,0,0,0,0,0,0,0,0,0,0,0,0,0,0,0,0,0,0,0,0,0,0,0,0,0,
0,0,0,0,0,0,0,0,0,0,0,0,0,0,0,0,0,0,0,0,0,0,18,18,0,0,0,0,0,0,
0,0,0,0,0,0,0,0,0,0,0,0,0,0,0,0,0,0,0,0,0,0,18,18,0,0,0,0,0,0,
0,0,0,0,0,0,0,0,0,0,0,0,0,0,0,0,0,0,0,0,0,0,0,0,0,0,0,0,0,0,
0,0,0,0,0,0,0,0,0,0,0,0,0,0,0,0,0,0,0,0,0,0,0,0,0,0,0,0,0,0,
0,0,0,0,0,0,0,0,0,0,0,0,0,0,0,0,0,0,0,0,0,0,0,0,0,0,0,0,0,0,
0,0,0,0,0,0,0,0,0,0,0,0,0,0,0,0,0,0,0,0,0,0,0,0,0,0,0,0,0,0,
0,0,0,0,0,0,0,0,0,0,0,0,0,0,0,0,0,0,0,0,0,0,0,0,0,0,0,0,0,0,
0,0,0,0,0,0,0,0,0,0,0,0,0,0,0,0,0,0,0,0,0,0,0,0,0,0,0,0,0,0,
0,0,0,0,0,0,0,0,0,0,0,0,0,0,0,0,0,0,0,0,0,0,0,0,0,0,0,0,0,0,
0,0,0,0,0,0,0,0,0,0,0,0,0,0,0,0,0,0,0,0,0,0,0,0,0,0,0,0,0,0,
0,0,0,0,0,0,0,0,18,0,0,0,0,0,0,0,0,0,0,0,0,0,0,0,0,0,0,0,0,0,
0,0,0,0,0,0,0,0,0,0,0,0,0,0,0,0,0,0,0,0,0,0,0,0,0,0,0,0,0,0,
0,0,0,0,0,0,0,0,0,0,0,0,0,0,0,0,0,0,0,0,0,0,0,0,0,0,0,0,0,0,
0,0,0,0,0,0,0,0,0,0,0,0,0,0,0,0,0,0,0,0,0,0,0,0,0,0,0,0,0,0,
0,0,0,0,0,0,0,0,0,0,0,0,0,0,0,0,0,0,0,0,0,0,0,0,0,0,0,0,0,0,
0,0,0,0,0,0,0,0,0,0,0,0,0,0,0,0,0,0,0,0,0,0,0,0,0,0,0,0,0,0
</data>
 </layer>
 <objectgroup id="4" name="objects">
  <object id="24" name="rock" type="tile" gid="67" x="896" y="1856" width="64" height="64"/>
  <object id="25" name="rock" type="tile" gid="67" x="1280" y="1792" width="64" height="64"/>
  <object id="26" name="rock" type="tile" gid="66" x="1408" y="1728" width="64" height="64"/>
  <object id="27" name="rock" type="tile" gid="66" x="960" y="1664" width="64" height="64"/>
  <object id="28" name="rock" type="tile" gid="66" x="1152" y="960" width="64" height="64"/>
  <object id="29" name="rock" type="tile" gid="66" x="384" y="704" width="64" height="64"/>
  <object id="30" name="column" type="tile" gid="68" x="400" y="960" width="64" height="128"/>
  <object id="31" name="start_area" type="player" gid="69" x="960" y="832" width="52" height="56"/>
  <object id="32" name="cave" type="player" gid="69" x="511.046" y="1505.72" width="52" height="56"/>
  <object id="33" name="column" type="tile" gid="68" x="464" y="384" width="64" height="128"/>
  <object id="34" name="column" type="tile" gid="68" x="272" y="256" width="64" height="128">
   <properties>
    <property name="version" type="int" value="0"/>
   </properties>
  </object>
  <object id="37" name="column" type="tile" gid="68" x="496" y="1440" width="64" height="128"/>
  <object id="38" name="column" type="tile" gid="68" x="656" y="1632" width="64" height="128"/>
  <object id="39" name="column" type="tile" gid="68" x="336" y="1632" width="64" height="128"/>
  <object id="40" name="column" type="tile" gid="68" x="496" y="1824" width="64" height="128"/>
  <object id="41" name="grass" type="tile" gid="71" x="1024" y="1344" width="64" height="56"/>
  <object id="42" name="grass" type="tile" gid="71" x="1024" y="1408" width="64" height="56"/>
  <object id="43" name="grass" type="tile" gid="70" x="1152" y="1344" width="64" height="64"/>
  <object id="45" name="grass" type="tile" gid="70" x="1216" y="1408" width="64" height="64"/>
  <object id="46" name="grass" type="tile" gid="70" x="1280" y="1408" width="64" height="64"/>
  <object id="47" name="grass" type="tile" gid="70" x="768" y="1280" width="64" height="64"/>
  <object id="48" template="grass.tx" name="grass" type="tile" x="1536" y="1472"/>
  <object id="49" template="grass.tx" name="grass" type="tile" x="1536" y="1536"/>
  <object id="50" template="grass.tx" name="grass" type="tile" x="1536" y="1408"/>
  <object id="60" name="rock" type="tile" gid="66" x="1472" y="1600" width="64" height="64"/>
  <object id="61" name="rock" type="tile" gid="67" x="1536" y="1600" width="64" height="64"/>
  <object id="63" name="rock" type="tile" gid="66" x="960" y="1472" width="64" height="64"/>
  <object id="64" name="rock" type="tile" gid="66" x="1088" y="1472" width="64" height="64"/>
  <object id="65" name="rock" type="tile" gid="66" x="1152" y="1472" width="64" height="64"/>
  <object id="76" name="bamboo" type="enemy" gid="72" x="1080" y="423" width="64" height="64"/>
  <object id="78" name="spirit" type="enemy" gid="73" x="817" y="541" width="64" height="64"/>
  <object id="79" name="raccoon" type="enemy" gid="74" x="177" y="566" width="240" height="240"/>
  <object id="80" name="squid" type="enemy" gid="75" x="1387" y="581" width="64" height="64"/>
  <object id="81" name="squid" type="enemy" gid="75" x="680" y="204" width="64" height="64"/>
  <object id="86" template="grass.tx" name="grass" type="tile" x="960" y="1408"/>
  <object id="88" name="grass" type="tile" gid="71" x="960" y="1344" width="64" height="56"/>
  <object id="89" name="grass" type="tile" gid="71" x="896" y="1408" width="64" height="56"/>
  <object id="90" name="grass" type="tile" gid="71" x="896" y="1536" width="64" height="56"/>
  <object id="92" name="grass" type="tile" gid="71" x="960" y="1536" width="64" height="56"/>
  <object id="93" name="grass" type="tile" gid="71" x="1024" y="1536" width="64" height="56">
   <properties>
    <property name="version" type="int" value="1"/>
   </properties>
  </object>
  <object id="94" name="grass" type="tile" gid="71" x="1024" y="1472" width="64" height="56"/>
  <object id="95" name="grass" type="tile" gid="71" x="1088" y="1536" width="64" height="56"/>
  <object id="96" name="grass" type="tile" gid="71" x="1088" y="1600" width="64" height="56"/>
  <object id="97" name="grass" type="tile" gid="71" x="1024" y="1600" width="64" height="56"/>
  <object id="98" name="grass" type="tile" gid="71" x="960" y="1600" width="64" height="56"/>
  <object id="102" name="grass" type="tile" gid="71" x="896" y="1344" width="64" height="56"/>
  <object id="103" template="grass.tx" name="grass" type="tile" x="512" y="1216"/>
  <object id="104" template="grass.tx" name="grass" type="tile" x="960" y="320"/>
  <object id="106" template="grass.tx" name="grass" type="tile" x="1408" y="1344"/>
  <object id="107" template="grass.tx" name="grass" type="tile" x="1280" y="1536"/>
  <object id="109" name="rock" type="tile" gid="67" x="896" y="1792" width="64" height="64"/>
  <object id="110" name="rock" type="tile" gid="67" x="896" y="1792" width="64" height="64"/>
  <object id="111" name="rock" type="tile" gid="67" x="1024" y="1792" width="64" height="64"/>
 </objectgroup>
 <objectgroup id="5" name="collision_shapes">
  <object id="15" name="collsion_box" type="collision" x="1920" y="2.66663" width="61.3333" height="1964" visible="0"/>
  <object id="16" name="collision_box" type="collision" x="-38.6667" y="1921.34" width="2012" height="82.6667" visible="0"/>
  <object id="17" name="collsion_box" type="collision" x="-90.6667" y="-219.333" width="90.6667" height="2290.67" visible="0"/>
  <object id="18" name="collsion_box" type="collision" x="0.814878" y="-117.969" width="2069.33" height="118.667" visible="0"/>
  <object id="9" name="cave" type="zone" x="481.818" y="1524.24" width="118.182" height="100" visible="0">
   <properties>
    <property name="shape" value="rectangle"/>
   </properties>
  </object>
  <object id="71" name="collision_box" type="collision" x="1447" y="675" width="152.5" height="46.5" visible="0"/>
  <object id="72" name="collision_box" type="collision" x="1577" y="770" width="52" height="80" visible="0"/>
  <object id="74" name="collision_box" type="collision" x="1577" y="356" width="238.5" height="425" visible="0"/>
 </objectgroup>
</map>
